X:867
T:Larkin's Beehive
T:Larkin's Beehives
R:reel
C:Paddy O'Brien (Nenagh) (1922-1991)
Z:id:hn-reel-867
M:C|
L:1/8
K:G
|: ~B3d edge | dGBG AGEG | ~B3d edge | dBAd BGGA |
~B3d edge | dGBG AGEG | B2GB ABGB | dBAd BG~G2 :|
|: BABd eg~g2 | eaaf gedB | GBdB eBdB | A2BG AGEG |
~B3d eg~g2 | eaab gedc | BDGB ABGB | dBAd BG~G2 :|
P:variations
|: Bd~d2 edge | d2BG AGE2 | Bd~d2 edge | dBAc BG~G2 |
BABd edge | d2BG AGEG | BDGB ABGB | dBAc BG~G2 :|
|: BA (3Bcd eg~g2 | eaab gedB | GBdB eBdB | AcBG AGEG |
BABd eg~g2 | eaaf gedc | B2GB ABGB | dBAc BG~G2 :|

